public/svg/color/nio.svg

<svg xmlns="http://www.w3.org/2000/svg" width="32" height="32" viewBox="0 0 32 32"><g fill="none" fill-rule="evenodd"><circle cx="16" cy="16" r="16" fill="#70C9C9" fill-rule="nonzero"/><path fill="#FFF" fill-rule="nonzero" d="M16,13.7635025 L11.177888,13.7635025 L16,5.5 L20.822112,13.7635025 L16,13.7635025 Z M16.6548547,23.5 L19.1700921,19.1914894 L21.5811481,15.0597381 L26.5,23.5 L16.6548547,23.5 Z M12.8299079,19.1914894 L15.3451453,23.5 L5.5,23.5 L10.4188519,15.0597381 L12.8299079,19.1914894 Z"/></g></svg>

<svg xmlns="http://www.w3.org/2000/svg" width="32" height="32" viewBox="0 0 32 32"><g fill="none"><circle cx="16" cy="16" r="16" fill="#70C9C9"/><path fill="#FFF" d="M16 13.764h-4.822L16 5.5l4.822 8.264H16zm.655 9.736l2.515-4.309 2.411-4.131L26.5 23.5h-9.845zm-3.825-4.309l2.515 4.309H5.5l4.919-8.44 2.41 4.131z"/></g></svg>
